X:16
T: Doctor John Hart/ Robert Jordan
T:Doctor John Hart
R: waltz
M: 3/4
L: 1/8
K: Amaj
e2ce/2f/2 ec|ed cB A2|B2A/2B/2c A/2B/2c|{c}BA F2F2|
ae ab c'b|ab af ae|fa/2b/2 af ec|B2ce f2|
fc ef ec|A2A2A2|{cd}ec fe e/2c/2B/2A/2|B2Bc B2|
{cd}ed cB A>A|Bc BA G3/2F/2|EA GB Ac|B2A2A2||
E/2C/2E/2F/2 EC B,A,|E2EF E2|{A}FE FA FE|C2EF F2|
AG AB cB|AB cd ed|cd ef ed/2c/2|{c}B2GA B2|
{f}ec AF E/2D/2C/2B,/2|A,2A2A2|{Ac}ec/2e/2 fe/2f/2 af|e2cB B2|
{cd}ed cB A>A|Bc BA G3/2F/2|EA GB Ac|B2A2A2|]
T:Robert Jordan
R: hornpipe
M: 4/4
L: 1/8
K: Gmaj
|: d2 Bd e2 d2 | B2 A2 G2 ED | E2 G2 G2 AB | d2 B2 A2 z2 |
B2 d2 e2 d2 | dBAG g2 g2 | gaba aged | e6 e2 | efge dedB |
AGAB d2 Be | d2 BA G2 BA | GE A2 A2 GA |
BAGF GABG | AGED EFGE | dedB dBAG | B4 G4 :|
|: d2 AB deBe | dBAG G2 G2 | GABA GDAG | E4 e2 e2 |
d/B/A GA B2 g2 | d/B/A GA B2 g2 | a2 ge dedB | A4 A2 BG |
E2 G2 GAGE | DEGA BABG | AGAB dBdA | G2 e2 e2 ed |
B2 BA G2 G2 | A2 AG E2 E2 | edBA GEGD | E2 G2 G4 :|

